static/logos/sketch-glyph-color.svg

<svg width="50" height="46" viewBox="0 0 50 46" fill="none" xmlns="http://www.w3.org/2000/svg">
<g clip-path="url(#clip0_1_1056)">
<path d="M10.8871 1.48669L24.9496 0L39.0121 1.48669L49.8992 16.1017L24.9496 45.1552L0 16.1017L10.8871 1.48669Z" fill="#FDB300"/>
<path d="M10.1058 16.1017L24.9496 45.1552L0 16.1017H10.1058Z" fill="#EA6C00"/>
<path d="M39.7926 16.1017L24.9488 45.1552L49.8984 16.1017H39.7926Z" fill="#EA6C00"/>
<path d="M10.1094 16.1017H39.7969L24.9532 45.1552L10.1094 16.1017Z" fill="#FDAD00"/>
<path d="M24.9532 0L10.8906 1.48668L10.1094 16.1017L24.9532 0Z" fill="#FDD231"/>
<path d="M24.9531 0L39.0157 1.48668L39.7969 16.1017L24.9531 0Z" fill="#FDD231"/>
<path d="M49.8984 16.1017L39.0113 1.48669L39.7926 16.1017H49.8984Z" fill="#FDAD00"/>
<path d="M0 16.1017L10.8871 1.48669L10.1058 16.1017H0Z" fill="#FDAD00"/>
<path d="M24.9532 0L10.1094 16.1017H39.7969L24.9532 0Z" fill="#FEEEB7"/>
</g>
<defs>
<clipPath id="clip0_1_1056">
<rect width="50" height="45.1777" fill="white"/>
</clipPath>
</defs>
</svg>

<svg xmlns="http://www.w3.org/2000/svg" width="69.565" height="64" fill="none" viewBox="0 0 50 46"><g clip-path="url(#a)"><path fill="#FDB300" d="M10.887 1.487 24.95 0l14.062 1.487L49.9 16.102 24.95 45.155 0 16.102 10.887 1.487Z"/><path fill="#EA6C00" d="M10.106 16.102 24.95 45.155 0 16.102h10.106Z"/><path fill="#EA6C00" d="M39.793 16.102 24.949 45.155l24.95-29.053H39.792Z"/><path fill="#FDAD00" d="M10.11 16.102h29.687L24.953 45.155 10.11 16.102Z"/><path fill="#FDD231" d="M24.953 0 10.891 1.487l-.782 14.615L24.953 0ZM24.953 0l14.063 1.487.78 14.615L24.954 0Z"/><path fill="#FDAD00" d="M49.898 16.102 39.011 1.487l.782 14.615h10.105ZM0 16.102 10.887 1.487l-.781 14.615H0Z"/><path fill="#FEEEB7" d="M24.953 0 10.11 16.102h29.688L24.953 0Z"/></g><defs><clipPath id="a"><path fill="#fff" d="M0 0h50v45.178H0z"/></clipPath></defs></svg>
